X:1
T:Title
L:1/8
M:4/4
K:Bb
V:1 treble nm="Grand Piano"
V:1
 z4 z2 z B, | D3 D F3 B | A6- AG | B3 A G3 B | E6- EB, | D3 D F3 F | G6- GG | c3 c c3 c | F6- FB, | %9
 D3 D F3 B | A6- AG | B3 A G3 B | E6- EB, | D3 D F3 F | B6- BG | c3 c c3 d | c6 B2 | d2 d4 cB | %18
 d6 c2 | e3 e d3 e | c6 B2 | d2 d4 cB | d6 c2 | e3 e d3 e | c6- cF | A2 A4 dc | cd/c/ G4- GF | %27
 G3 G A3 A | B8 |] %29

